icons/link-unlink.svg

<svg xmlns="http://www.w3.org/2000/svg" width="24" height="24" fill="none"><g clip-path="url(#a)"><g><path fill="#121212" d="M17 17H22V19H19V22H17V17ZM7 7H2V5H5V2H7V7ZM18.364 15.536L16.95 14.12L18.364 12.706C18.8316 12.2424 19.2031 11.6911 19.4571 11.0836C19.711 10.4761 19.8425 9.82442 19.844 9.16597C19.8454 8.50751 19.7168 7.85526 19.4655 7.24666C19.2142 6.63805 18.8451 6.08508 18.3795 5.61948C17.9139 5.15389 17.3609 4.78484 16.7523 4.53353C16.1437 4.28221 15.4915 4.15359 14.833 4.15503C14.1746 4.15647 13.5229 4.28795 12.9154 4.54193C12.3079 4.7959 11.7566 5.16737 11.293 5.635L9.879 7.05L8.464 5.636L9.88 4.222C11.1928 2.90918 12.9734 2.17164 14.83 2.17164C16.6866 2.17164 18.4672 2.90918 19.78 4.222C21.0928 5.53482 21.8304 7.31539 21.8304 9.172C21.8304 11.0286 21.0928 12.8092 19.78 14.122L18.365 15.536H18.364ZM15.536 18.364L14.121 19.778C12.8082 21.0908 11.0276 21.8284 9.171 21.8284C7.31439 21.8284 5.53382 21.0908 4.221 19.778C2.90818 18.4652 2.17064 16.6846 2.17064 14.828C2.17064 12.9714 2.90818 11.1908 4.221 9.878L5.636 8.464L7.05 9.88L5.636 11.294C5.16837 11.7576 4.7969 12.3089 4.54293 12.9164C4.28895 13.5239 4.15747 14.1756 4.15603 14.834C4.15459 15.4925 4.28321 16.1447 4.53453 16.7533C4.78584 17.3619 5.15489 17.9149 5.62048 18.3805C6.08608 18.8461 6.63905 19.2152 7.24766 19.4665C7.85626 19.7178 8.50851 19.8464 9.16696 19.845C9.82541 19.8435 10.4771 19.712 11.0846 19.4581C11.6921 19.2041 12.2434 18.8326 12.707 18.365L14.121 16.951L15.536 18.365V18.364ZM14.828 7.757L16.243 9.172L9.172 16.242L7.757 14.828L14.828 7.758V7.757Z"/></g></g><defs><clipPath id="a"><rect width="24" height="24" fill="white"/></clipPath></defs></svg>

<svg width="24" height="24" fill="none" xmlns="http://www.w3.org/2000/svg"><g clip-path="url(#a)"><path d="M17 17h5v2h-3v3h-2v-5ZM7 7H2V5h3V2h2v5Zm11.364 8.536L16.95 14.12l1.414-1.414a5.001 5.001 0 0 0-3.531-8.551 5 5 0 0 0-3.54 1.48L9.879 7.05 8.464 5.636 9.88 4.222a7 7 0 1 1 9.9 9.9l-1.415 1.414h-.001Zm-2.828 2.828-1.415 1.414a7 7 0 1 1-9.9-9.9l1.415-1.414L7.05 9.88l-1.414 1.414a5 5 0 1 0 7.071 7.071l1.414-1.414 1.415 1.414v-.001Zm-.708-10.607 1.415 1.415-7.071 7.07-1.415-1.414 7.071-7.07v-.001Z" /></g><defs><clipPath id="a"><path fill="#fff" d="M0 0h24v24H0z"/></clipPath></defs></svg>
